X: 39781
T: That Side Of Ten Minutes
R: reel
M: 4/4
K: Cmajor
K:CMix
GF|:ECCD EGFE|DB,B,A, G,^FG=F|EGcd c=BGA|_BGGF D^FG=F|
ECCD EGFE|DB,B,A, (3G,G,G, G,A,|B,A,B,C DFGA|BGFD ECCD:|
|:_EDEF G^FGA|BDdc BGGF|EGcd c=BGg|ecd=B cBGF|_EDEF G^FGA|
BDdc BGG^F|1 GG,G,A, =B,A,B,C|DG,GF ECCD:|2 Gggf dc=BA|=BGFD ECC2||

